public/library/sonicscan-icon-dark.svg

<svg width="150" height="150" viewBox="0 0 150 150" fill="none" xmlns="http://www.w3.org/2000/svg">
<g clip-path="url(#clip0_16090_6561)">
<path d="M90.1978 93.2521C62.1058 101.688 38.8678 113.994 24.3178 128.412L23.6758 129.054C27.5458 132.714 31.7878 135.99 36.3718 138.774L37.3558 137.568C41.3278 132.714 45.5878 128.028 50.0218 123.612C61.9258 111.75 75.5458 101.484 90.2098 93.2401L90.1918 93.2521H90.1978Z" fill="white"/>
<path d="M0.710938 80.7542C1.83294 95.7962 7.41894 109.59 16.185 120.81L16.587 120.408C25.5929 111.522 37.3169 103.446 51.4589 96.4081C63.8549 90.2341 78.0869 84.9362 93.4289 80.7542H0.710938Z" fill="white"/>
<path d="M57.8832 18.9301C83.0172 43.9741 114.649 60.5341 149.347 66.8161C145.159 29.6881 113.557 0.804077 75.1632 0.804077C65.0232 0.804077 55.3573 2.82608 46.5312 6.47408C50.1133 10.7881 53.9412 14.9881 57.8832 18.9301Z" fill="white"/>
<path d="M24.3196 21.9961C38.8696 36.4321 62.1076 48.7201 90.1996 57.1741C75.5356 48.9181 61.9156 38.6641 50.0116 26.8021C45.5896 22.3981 41.3356 17.7121 37.3456 12.8461L36.3616 11.6401C31.7776 14.4241 27.5356 17.6941 23.6836 21.3541L24.3256 21.9961H24.3196Z" fill="white"/>
<path d="M57.8832 131.478C53.9232 135.42 50.1012 139.62 46.5312 143.934C55.3453 147.582 65.0232 149.604 75.1632 149.604C113.563 149.604 145.165 120.72 149.359 83.5801C114.667 89.8621 83.0352 106.422 57.8952 131.466L57.8832 131.478Z" fill="white"/>
<path d="M51.4589 54.0001C37.3169 46.9621 25.5929 38.8801 16.587 30.0001L16.185 29.5981C7.41894 40.8181 1.83294 54.6121 0.710938 69.6541H93.4109C78.0749 65.472 63.8549 60.174 51.4409 53.982L51.4529 54.0001H51.4589Z" fill="white"/>
</g>
<defs>
<clipPath id="clip0_16090_6561">
<rect width="150" height="150" fill="white"/>
</clipPath>
</defs>
</svg>

<svg xmlns="http://www.w3.org/2000/svg" width="150" height="150" fill="none" viewBox="0 0 150 150"><g fill="#fff" clip-path="url(#a)"><path d="M90.198 93.252c-28.092 8.436-51.33 20.742-65.88 35.16l-.642.642c3.87 3.66 8.112 6.936 12.696 9.72l.984-1.206a186 186 0 0 1 12.666-13.956C61.926 111.75 75.546 101.484 90.21 93.24l-.018.012zM.71 80.754a73.83 73.83 0 0 0 15.475 40.056l.402-.402c9.006-8.886 20.73-16.962 34.872-24 12.396-6.174 26.628-11.472 41.97-15.654zM57.883 18.93c25.134 25.044 56.766 41.604 91.464 47.886C145.159 29.688 113.557.804 75.163.804a74.8 74.8 0 0 0-28.632 5.67A183 183 0 0 0 57.883 18.93M24.32 21.996C38.87 36.432 62.108 48.72 90.2 57.174c-14.664-8.256-28.284-18.51-40.188-30.372a188 188 0 0 1-12.666-13.956l-.984-1.206a74.8 74.8 0 0 0-12.678 9.714l.642.642zM57.883 131.478a176 176 0 0 0-11.352 12.456 74.7 74.7 0 0 0 28.632 5.67c38.4 0 70.002-28.884 74.196-66.024-34.692 6.282-66.324 22.842-91.464 47.886zM51.459 54c-14.142-7.038-25.866-15.12-34.872-24l-.402-.402A73.83 73.83 0 0 0 .711 69.654h92.7c-15.336-4.182-29.556-9.48-41.97-15.672l.012.018z"/></g><defs><clipPath id="a"><path fill="#fff" d="M0 0h150v150H0z"/></clipPath></defs></svg>
